src/icons/chevron.svg

<svg width="16" height="17" viewBox="0 0 16 17" fill="none" xmlns="http://www.w3.org/2000/svg">
<g clip-path="url(#clip0_16_1739)">
<path d="M13.0574 8.47918C13.0574 8.26216 12.9705 8.06251 12.8056 7.90626L5.9306 1.17015C5.77434 1.02258 5.58338 0.944458 5.35768 0.944458C4.91498 0.944458 4.56775 1.283 4.56775 1.73439C4.56775 1.9514 4.65456 2.15105 4.79345 2.29863L11.1129 8.47918L4.79345 14.6597C4.65456 14.8073 4.56775 14.9982 4.56775 15.224C4.56775 15.6754 4.91498 16.0139 5.35768 16.0139C5.58338 16.0139 5.77434 15.9357 5.9306 15.7796L12.8056 9.05209C12.9705 8.88717 13.0574 8.69619 13.0574 8.47918Z" fill="currentColor" />
</g>
<defs>
<clipPath id="clip0_16_1739">
<rect width="16" height="16" fill="currentColor" transform="translate(0 0.5)"/>
</clipPath>
</defs>
</svg>

<svg width="16" height="17" fill="none" xmlns="http://www.w3.org/2000/svg"><g clip-path="url(#prefix__clip0_16_1739)"><path d="M13.057 8.48a.777.777 0 00-.251-.574L5.93 1.17a.807.807 0 00-.573-.226.777.777 0 00-.79.79c0 .217.087.417.225.565l6.32 6.18-6.32 6.18a.808.808 0 00-.225.565c0 .451.347.79.79.79a.78.78 0 00.573-.234l6.875-6.728a.791.791 0 00.251-.573z" fill="currentColor"/></g><defs><clipPath id="prefix__clip0_16_1739"><path fill="currentColor" transform="translate(0 .5)" d="M0 0h16v16H0z"/></clipPath></defs></svg>
